X:1101
T:Knit the Pocky
P:Knit the Pocky
C:Bremner's Coll. 1761
R:Reel (8x32)
B:RSCDS 11-1
Z:Anselm Lingnau <anselm@strathspey.org>
M:C|
L:1/8
K:Dm
A|"Dm"Ddd^c defd|"C"cBAG FGEC|"Dm"Ddd^c defg|"A7"ed^ce d2 d z|
  "Dm"Ddd^c defd|"C"cBAG FGEC|"Dm"Ddd^c defg|"A7"ed^ce d2 d||
a|"Dm"defg afdg|"C"edcg ecge|"Dm"defg afdg|"C"ecge "Dm"d2 da|
  "Dm"defg afdg|"C"edcg ecge|"Dm"defg afdg|"C"ecge "Dm"d2 d|]

